X: 39911
T: Thomas Leixlip The Proud
R: jig
M: 6/8
K: Dmajor
A|:d(f/e/)(d/c/) dAA|Afe fAA|d(f/e/)(d/c/) dAF|GAc d2 A|
d(f/e/)(d/c/) dAA|Afe fAA|Bc/B/A/G/ A(B/A/)(G/F/)|GAc d2 A:|
|:Add d2 (f/e/)|(d/c/) (d/e/) (f/g/) afd|gfe fed|AFA B2 (c/d/)|
AFF BGG|AFd (B/A/) (G/F/) (E/D/)|AFd (B/A/) (G/F/) (E/D/)|EFA B2 (c/d/)|
AFF BGG|AFd (B/A/) (G/F/) (E/D/)|g>fe fdB|1 ABc d2 A:|2 ABc d3||

